X: 1
T:Mountain Road, The
M:C|
L:1/8
R:reel
K:D
F2AF BFAF|~F2AF EFDE|1 F2AF BFAF|G2FG EFDE:|2 FA~A2 BAFB|ABde fdec||
|:~d3B A2FA|~d3e fgfe|1 ~d3B A2FA|GEFD EDBc:|2 defd AFDF|GEFD EDBA||

